X: 6
T: Cronin's Jig
S: Jimmy Doyle
M: 12/8
L: 1/8
R: jig
K: Ador
|: ABc AGE | c2 B c2 d | efg edB | g2 g gfg |
eae g2 e | dBA G2 A | B2 e dBG |[1 A2 B c2 B :|[2 ABA ABd ||
|:e2 a age | dgg gfg | eab age | g2 g gfg |
eae g/a/ge | dBA G/A/GA |[1 BeB dBG | ABA ABd :|[2 BAB dBG | A3 c2 B |]
